styles/5/Numix/64/places/blue-folder-open.svg

<svg viewBox="0 0 64 64" xmlns="http://www.w3.org/2000/svg">
 <defs>
  <radialGradient gradientTransform="matrix(1.66667 0 0 0.27778 -8 42.08)" r="24" gradientUnits="userSpaceOnUse" cy="40.5" cx="24" id="radialGradient3068">
   <stop style="stop-color:#000;stop-opacity:1"/>
   <stop style="stop-color:#000;stop-opacity:0.196" offset="1"/>
  </radialGradient>
 </defs>
 <path style="fill:url(#radialGradient3068);opacity:0.1;fill-opacity:1;stroke:none" d="m 32 46.668 c -13.1 0 -24.704 1.044 -32 2.667 l 0 8 c 7.296 1.622 18.898 2.667 32 2.667 13.1 0 24.704 -1.044 32 -2.667 l 0 -8 c -7.296 -1.623 -18.898 -2.667 -32 -2.667 z"/>
 <rect ry="6.562" rx="6.522" style="fill:#1976d2;fill-opacity:1;stroke:none" width="60" height="42" y="13.998" x="2"/>
 <path style="fill:#fff1ed;opacity:0.6;fill-opacity:1;stroke:none" d="m 16 18 l -10 9.998 l 6 0 l 0 24 l 8 0 l 0 -24 l 6 0 l -10 -9.998 z"/>
 <path style="fill:#fff;opacity:0.2;fill-opacity:1;stroke:none" d="m 8.522 13.338 c -3.613 0 -6.522 2.973 -6.522 6.667 l 0 2.667 c 0 -3.693 2.909 -6.667 6.522 -6.667 l 46.957 0 c 3.613 0 6.522 2.973 6.522 6.667 l 0 -2.667 c 0 -3.693 -2.909 -6.667 -6.522 -6.667 l -46.957 0 z"/>
 <path style="fill:#42a5f5;fill-opacity:1;stroke:none" d="m 8.522 31.998 10.435 0 c 14.348 -1 11.739 -12 20.87 -12 l 15.652 0 c 3.613 0 6.522 2.23 6.522 5 l 0 26 c 0 2.77 -2.909 5 -6.522 5 l -46.957 0 c -3.613 0 -6.522 -2.23 -6.522 -5 l 0 -14 c 0 -3 2.609 -5 6.522 -5 z"/>
 <path style="fill:#000;opacity:0.15;fill-opacity:1;stroke:none" d="m 2,46.6678 0,2.667 c 0,3.693 2.909,6.667 6.522,6.667 l 46.957,0 c 3.613,0 6.522,-2.973 6.522,-6.667 l 0,-2.667 c 0,3.693 -2.909,7.333 -6.522,7.333 l -46.957,0 C 4.909,54.0008 2,50.3608 2,46.6678 Z"/>
</svg>

<?xml version="1.0" encoding="UTF-8" standalone="no"?>
<svg
   xmlns:dc="http://purl.org/dc/elements/1.1/"
   xmlns:cc="http://creativecommons.org/ns#"
   xmlns:rdf="http://www.w3.org/1999/02/22-rdf-syntax-ns#"
   xmlns:svg="http://www.w3.org/2000/svg"
   xmlns="http://www.w3.org/2000/svg"
   xmlns:sodipodi="http://sodipodi.sourceforge.net/DTD/sodipodi-0.dtd"
   xmlns:inkscape="http://www.inkscape.org/namespaces/inkscape"
   viewBox="0 0 64 64"
   id="svg2"
   version="1.1"
   inkscape:version="0.91 r13725"
   sodipodi:docname="blue-folder-open.svg">
  <metadata
     id="metadata31">
    <rdf:RDF>
      <cc:Work
         rdf:about="">
        <dc:format>image/svg+xml</dc:format>
        <dc:type
           rdf:resource="http://purl.org/dc/dcmitype/StillImage" />
      </cc:Work>
    </rdf:RDF>
  </metadata>
  <sodipodi:namedview
     pagecolor="#ffffff"
     bordercolor="#666666"
     borderopacity="1"
     objecttolerance="10"
     gridtolerance="10"
     guidetolerance="10"
     inkscape:pageopacity="0"
     inkscape:pageshadow="2"
     inkscape:window-width="722"
     inkscape:window-height="480"
     id="namedview29"
     showgrid="false"
     inkscape:zoom="3.6875"
     inkscape:cx="32"
     inkscape:cy="32"
     inkscape:window-x="0"
     inkscape:window-y="24"
     inkscape:window-maximized="0"
     inkscape:current-layer="svg2" />
  <defs
     id="defs4">
    <radialGradient
       r="24"
       cy="40.5"
       cx="24"
       gradientTransform="matrix(1.6666667,0,0,0.2777777,-8,42.0834)"
       gradientUnits="userSpaceOnUse"
       id="radialGradient3068">
      <stop
         style="stop-color:#000;stop-opacity:1"
         id="stop7" />
      <stop
         offset="1"
         style="stop-color:#000;stop-opacity:0.196"
         id="stop9" />
    </radialGradient>
  </defs>
  <path
     inkscape:connector-curvature="0"
     id="path13"
     style="opacity:0.1;fill:url(#radialGradient3068);fill-opacity:1;stroke:none"
     d="m 32,46.6678 c -13.1,0 -24.704,1.044 -32,2.667 l 0,8 c 7.296,1.622 18.898,2.667 32,2.667 13.1,0 24.704,-1.044 32,-2.667 l 0,-8 c -7.296,-1.623 -18.898,-2.667 -32,-2.667 z" />
  <rect
     id="rect15"
     style="fill:#1976d2;fill-opacity:1;stroke:none"
     ry="6.5619998"
     rx="6.5219998"
     y="13.997786"
     x="2"
     height="42"
     width="60" />
  <path
     style="fill:#fff1ed;fill-opacity:1;stroke:none;opacity:0.6"
     d="M 16 18.001953 L 6 28 L 12 28 L 12 52.001953 L 20 52.001953 L 20 28 L 26 28 L 16 18.001953 z "
     id="rect19" />
  <path
     inkscape:connector-curvature="0"
     id="path23"
     style="opacity:0.2;fill:#ffffff;fill-opacity:1;stroke:none"
     d="M 8.522,13.3378 C 4.909,13.3378 2,16.3108 2,20.0048 l 0,2.667 c 0,-3.693 2.909,-6.667 6.522,-6.667 l 46.957,0 c 3.613,0 6.522,2.973 6.522,6.667 l 0,-2.667 c 0,-3.693 -2.909,-6.667 -6.522,-6.667 l -46.957,0 z" />
  <path
     inkscape:connector-curvature="0"
     id="path25"
     style="fill:#42a5f5;fill-opacity:1;stroke:none"
     d="m 8.522,31.9978 10.435,0 c 14.348,-1 11.739,-12 20.87,-12 l 15.652,0 c 3.613,0 6.522,2.23 6.522,5 l 0,26 c 0,2.77 -2.909,5 -6.522,5 l -46.957,0 c -3.613,0 -6.522,-2.23 -6.522,-5 l 0,-14 c 0,-3 2.609,-5 6.522,-5 z" />
  <path
     inkscape:connector-curvature="0"
     id="path27"
     style="opacity:0.15;fill:#000000;fill-opacity:1;stroke:none"
     d="m 2,46.6678 0,2.667 c 0,3.693 2.909,6.667 6.522,6.667 l 46.957,0 c 3.613,0 6.522,-2.973 6.522,-6.667 l 0,-2.667 c 0,3.693 -2.909,7.333 -6.522,7.333 l -46.957,0 C 4.909,54.0008 2,50.3608 2,46.6678 Z" />
</svg>
